remix/Document/file-lock-line.svg

<svg viewBox="0 0 24 24" fill="currentColor" xmlns="http://www.w3.org/2000/svg"><path d="M15 4H5V20H19V8H15V4ZM3 2.9918C3 2.44405 3.44749 2 3.9985 2H16L20.9997 7L21 20.9925C21 21.5489 20.5551 22 20.0066 22H3.9934C3.44476 22 3 21.5447 3 21.0082V2.9918ZM15 11H16V16H8V11H9V10C9 8.34315 10.3431 7 12 7C13.6569 7 15 8.34315 15 10V11ZM13 11V10C13 9.44772 12.5523 9 12 9C11.4477 9 11 9.44772 11 10V11H13Z"/></svg>

<svg viewBox="0 0 24 24" xmlns="http://www.w3.org/2000/svg"><path fill="none" d="M0 0h24v24H0Z"/><path d="M15 4H5v16h14V8h-4V4ZM3 2.99c0-.55.44-1 .99-1h12l5 5v13.99h0c0 .55-.45 1-1 1 -.01 0-.01 0-.01 0H3.96v0c-.55-.01-.99-.45-1-1V2.96Zm12 8h1v5H8v-5h1v-1 0c0-1.66 1.34-3 3-3 1.65 0 3 1.34 3 3v1Zm-2 0v-1 0c0-.56-.45-1-1-1 -.56 0-1 .44-1 1v1h2Z"/></svg>
